X:1
T:The Child in the Midst
T:Thomas Martin Towne
T:The Child in the Midst
T:Public Domain
T:Public Domain
C:Thomas Martin Towne
Z:Public Domain
%%score ( 1 2 ) ( 3 4 )
L:1/8
M:6/8
K:Bb
V:1 treble 
V:2 treble 
V:3 bass 
V:4 bass 
V:1
 [DF] | [DF][DF][DF] [DF][^C=E][DF] | [EG][EG][EG] [EG]2 [EG] | [EA][EA][EA] [EA][EG][EA] | %4
w: 1.~When|Je- sus was asked by His|ser- vants one day Who|great- est in Heav- en would|
w: 2.~Tho’|hon- or and rich- es may|bright- en our way, And|friends ga- ther round with their|
w: 3.~God|bless- es the child- ren be-|cause they are pure, And|all may be such by His|
 [DB]3- [DB]2 [DF] | [DF][DF][DF] [DF][^C=E][DF] | [EG][EG][EG] [EG]2 [EG] | %7
w: be, * He|beck- oned a lit- tle one|to Him and said, “Such|
w: cheer, * Ex-|cept we are will- ing the|poor- est to serve, No|
w: grace; * Thro’|cross- es and cares we may|rise to His throne, And|
 [=Ec][Ed][Ec] [EB][EA][EG] | F3- F2 ||"^Refrain" F | [Fe][Fe][Fe] [Fe][Fd][Fc] | %11
w: on- ly shall en- ter with|Me.” *|||
w: wel- come to Heav- en we’ll|hear. *|Mas-|re- deem us from hard- ness|
w: shine in the light of His|face. *|||
 [Fd][Fd][Fd] [Fd]2 [DF] | [Ec][Ec][Ec] [Ec][DB][CA] | [DB]3- [DB]2 [DF] | %14
w: |||
w: and pride, And make us|a child in Thy sight; With|meek- * ness|
w: |||
 [EG][EG][EG] [EG][EA][EB] | [DF][DF][DB] [Fd]2 [Ge] | [Fd][Ec][DB] [EA][EG][EA] | [DB]3- [DB]2 |] %18
w: ||||
w: and trust may our bo- som|be filled, And love guide|our ac- tions a- right. *||
w: ||||
V:2
 x | x6 | x6 | x6 | x6 | x6 | x6 | x6 | F3- F2 || F | x6 | x6 | x6 | x6 | x6 | x6 | x6 | x5 |] %18
w: ||||||||||||||||||
w: ||||||||O *|ter,|||||||||
V:3
 [B,,B,] | [B,,B,][B,,B,][B,,B,] [B,,B,][B,,B,][B,,B,] | [E,B,][E,B,][E,B,] [E,B,]2 [E,B,] | %3
 F,[F,C][F,C] [F,C][F,B,][F,C] | [B,,B,]3- [B,,B,]2 [B,,B,] | %5
 [B,,B,][B,,B,][B,,B,] [B,,B,][B,,B,][B,,B,] | [E,B,][E,B,][E,B,] [E,B,]2 [E,G,] | %7
 [C,G,][C,G,][C,G,] [C,G,][C,C][C,B,] | [F,A,]3- [F,A,]2 || [F,A,] | %10
 [F,A,][F,A,][F,A,] [F,A,][G,B,][A,C] | B,B,B, B,2 B, | [F,A,][F,A,][F,A,] [F,A,][F,B,]F, | %13
 [B,,F,]3- [B,,F,]2 [B,,B,] | [E,B,][E,B,][E,B,] [E,B,][E,A,][E,G,] | B,B,B, B,2 [E,B,] | %16
 [F,B,]F,F, [F,C][F,C][F,C] | [B,,B,]3- [B,,B,]2 |] %18
V:4
 x | x6 | x6 | F, x5 | x6 | x6 | x6 | x6 | x5 || x | x6 | B,B,B, B,2 B, | x5 F, | x6 | x6 | %15
 B,B,B, B,2 x | x F,F, x3 | x5 |] %18

